X:88
T:I Buried My Wife and Danced on Top of Her
R:jig
Z:id:hn-jig-88
M:6/8
K:Dmix
DED F2G|AdB cAF|~G3 cAG|~F3 GEA|DED F2G|AdB cAF|~G3 cAG|AFD D3:|
|:d2e fed|faf gfe|d2e fed|dcA dcA|d2e fed|faf gfe|dcA BAG|AFD D3:|

